!!!COM: Haydn, Franz Joseph 
!!!OPR: Symphony in C Major 
!!!OTL: Presto 
!!!OMV: 3 
!!!SCT: H I:2 
!!!SCA: Thematisch-bibliographisches Werkevererzeichnis (A. van Hoboken) 
!!!YOR: Breitkopf & Härtel Edition 
!!!EED: Frances Bennion 
!!!ENC: Frances Bennion 
!!!CDT: 1732/3/31/-1809/5/31/
!!!OCY: Österreich 
!!!YEC: Copyright (c) 1994, 2000 Center for Computer Assisted Research in the Humanities 
!!!YEM: Rights to all derivative editions reserved. 
!!!YEM: Refer to licensing agreement for further details. 
!!!YEN: United States of America 
**kern	**kern	**kern	**kern	**kern	**kern
*k[]	*k[]	*k[]	*k[]	*k[]	*k[]
*C:	*C:	*C:	*C:	*C:	*C:
*clefF	*clefF	*clefF	*clefF	*clefC3	*clefF4
*M3/8	*M3/8	*M3/8	*M3/8	*M3/8	*M3/8
*tb32	*tb32	*tb32	*tb32	*tb32	*tb32
=1	=1	=1	=1	=1	=1
4cc	4e	4cc	4cc	4c	4C
8r	8r	16ee	16ee	8cc	8c
.	.	16gg	16gg	.	.
=2	=2	=2	=2	=2	=2
4g	4g	8g	8g	4b	4B
.	.	8a	8a	.	.
8r	8r	8b	8b	16g	16G
.	.	.	.	16f	16F
=3	=3	=3	=3	=3	=3
4.r	4.r	8cc	8cc	8e	8E
.	.	8dd	8dd	8r	8D
.	.	8ee	8ee	8c	8C
=4	=4	=4	=4	=4	=4
8r	8r	4ff	4ff	8c	8D
8dd	8g	.	.	8B	8G
8cc	8e	8ee	8ee	8c	8C
=5	=5	=5	=5	=5	=5
4.r	4.r	4aa	4aa	4c	4F
.	.	16ff	16ff	8r	8r
.	.	16dd	16dd	.	.
=6	=6	=6	=6	=6	=6
4.r	4.r	8gg	8gg	4c	4E
.	.	8b	8b	.	.
.	.	8cc	8cc	8r	8r
=7	=7	=7	=7	=7	=7
8dd	8g	8dd	8dd	8r	8r
8ff	8dd	8f	8f	8b	8B
8ee	8cc	8e	8e	8cc	8c
=8	=8	=8	=8	=8	=8
4dd	4g	4d	4d	8g	8G
.	.	.	.	16g	16G
.	.	.	.	16f	16F
8r	8r	8r	8r	16e	16E
.	.	.	.	16d	16D
=9	=9	=9	=9	=9	=9
4cc	4e	4cc	4cc	4c	4C
8r	8r	16ee	16ee	8cc	8c
.	.	16gg	16gg	.	.
=10	=10	=10	=10	=10	=10
4.r	4.r	8g	8g	4b	4B
.	.	8a	8a	.	.
.	.	8b	8b	16g	16G
.	.	.	.	16f	16F
=11	=11	=11	=11	=11	=11
4.r	4.r	8cc	8cc	8e	8E
.	.	8dd	8dd	8d	8D
.	.	8ee	8ee	8c	8C
=12	=12	=12	=12	=12	=12
8r	8r	4ff	4ff	8d	8D
8dd	8g	.	.	8g	8G
8cc	8e	8ee	8ee	8c	8C
=13	=13	=13	=13	=13	=13
4.r	4.r	4ccc	4ccc	4cc	4c
.	.	16ee	16ee	8cc	8c
.	.	16ff#	16ff#	.	.
=14	=14	=14	=14	=14	=14
4.r	4.r	8gg	8gg	8b	8B
.	.	8aa	8aa	8a	8A
.	.	8bb	8bb	8g	8G
=15	=15	=15	=15	=15	=15
4.r	4.r	4aa	4aa	4f#	4F#
.	.	16a	16a	8d	8D
.	.	16cc	16cc	.	.
=16	=16	=16	=16	=16	=16
4.r	4.r	8b	8b	8g	8G
.	.	8cc	8cc	8a	8A
.	.	8dd	8dd	8b	8B
=17	=17	=17	=17	=17	=17
4g	4g	8ee	8ee	4cc	4c
.	.	16dd	16dd	.	.
.	.	16cc	16cc	.	.
8r	8r	16b	16b	8r	8r
.	.	16a	16a	.	.
=18	=18	=18	=18	=18	=18
4g	4g	8dd	8dd	4b	4B
.	.	16cc	16cc	.	.
.	.	16b	16b	.	.
8r	8r	16a	16a	8r	8r
.	.	16g	16g	.	.
=19	=19	=19	=19	=19	=19
8r	8r	8B	8B	8B	8BB
8cc	8cc	8c	8c	8c	8C
8dd	8dd	8d	8d	8d	8D
=20	=20	=20	=20	=20	=20
4dd	4g	4G	4G	8G	8GG
.	.	.	.	8g	8G
8r	8r	8r	8r	8f	8F
=21	=21	=21	=21	=21	=21
4cc	4e	4cc	8g	8e	8E
.	.	.	8g	8e	8E
8r	8r	16gg	8g	8e	8E
.	.	16ee	.	.	.
=22	=22	=22	=22	=22	=22
4.r	4.r	8cc#	8a	8f	8F
.	.	8dd	8a	8f	8F
.	.	8r	8a	8f	8F
=23	=23	=23	=23	=23	=23
4dd	4g	4dd	8b	8g	8G
.	.	.	8b	8g	8G
8r	8r	16aa	8b	8g	8G
.	.	16ff	.	.	.
=24	=24	=24	=24	=24	=24
4.r	4.r	8dd#	8b	8cc	8c
.	.	8ee	8cc	8cc	8c
.	.	8r	8r	8cc	8c
=25	=25	=25	=25	=25	=25
4cc	4c	4aa	4cc	4f	4F
8r	8r	16ccc	8r	8r	8r
.	.	16aa	.	.	.
=26	=26	=26	=26	=26	=26
4cc	4c	4gg	4cc	4e	4E
8r	8r	16cc	8r	8r	8r
.	.	16dd	.	.	.
=27	=27	=27	=27	=27	=27
4.r	4.r	8ee	4.r	4.r	4.r
.	.	8dd	.	.	.
.	.	8cc	.	.	.
=28	=28	=28	=28	=28	=28
[4.gg	[4.g	[4.gg	4r	4.r	4.r
.	.	.	16g	.	.
.	.	.	16a	.	.
=29	=29	=29	=29	=29	=29
4.gg_	4.g_	4.gg_	8b	4.r	4.r
.	.	.	8a	.	.
.	.	.	8g	.	.
=30	=30	=30	=30	=30	=30
4.gg_	4.g_	4.gg_	8cc	4r	4.r
.	.	.	8ee	.	.
.	.	.	16ee	16c	.
.	.	.	16ff	16d	.
=31	=31	=31	=31	=31	=31
4.gg_	4.g_	4.gg_	8gg	8e	4.r
.	.	.	8b	8d	.
.	.	.	8cc	8c	.
=32	=32	=32	=32	=32	=32
4.gg_	4.g_	4.gg_	8b	8g	4r
.	.	.	8dd	8b	.
.	.	.	8g	16b	16G
.	.	.	.	16cc	16A
=33	=33	=33	=33	=33	=33
4.gg_	4.g_	4.gg_	[4.g	8dd	8B
.	.	.	.	8cc	8A
.	.	.	.	8b	8G
=34	=34	=34	=34	=34	=34
4gg]	4g]	4gg]	4g]	8ee	8c
.	.	.	.	8cc	8e
8cc	8cc	16c	16c	16c	16C
.	.	16d	16d	16d	16D
=35	=35	=35	=35	=35	=35
8ee	8ee	8e	8e	8e	8E
8dd	8dd	8d	8d	8d	8D
8cc	8cc	8c	8c	8c	8C
=36	=36	=36	=36	=36	=36
4g	4g	4G	4G	8G	8GG
.	.	.	.	16g	16G
.	.	.	.	16f	16F
8r	8r	8r	8r	16e	16E
.	.	.	.	16d	16D
=37	=37	=37	=37	=37	=37
4cc	4e	4cc	4cc	4c	4C
8r	8r	16ee	16ee	8cc	8c
.	.	16gg	16gg	.	.
=38	=38	=38	=38	=38	=38
4dd	4g	8g	8g	4b	4B
.	.	8a	8a	.	.
8r	8r	8b	8b	16g	16G
.	.	.	.	16f	16F
=39	=39	=39	=39	=39	=39
4.r	4.r	8cc	8cc	8e	8E
.	.	8dd	8dd	8d	8D
.	.	8ee	8ee	8c	8C
=40	=40	=40	=40	=40	=40
8r	8r	4ff	4ff	8c	8D
8dd	8g	.	.	8B	8G
8cc	8e	8ee	8ee	8c	8C
=41	=41	=41	=41	=41	=41
4.r	4.r	4aa	4aa	4c	4F
.	.	16ff	16ff	8r	8r
.	.	16dd	16dd	.	.
=42	=42	=42	=42	=42	=42
4.r	4.r	8gg	8gg	4c	4E
.	.	8b	8b	.	.
.	.	8cc	8cc	8r	8r
=43	=43	=43	=43	=43	=43
8dd	8g	8dd	8dd	8r	8r
8ff	8dd	8f	8d	8b	8B
8ee	8cc	8e	8c	8cc	8c
=44	=44	=44	=44	=44	=44
4dd	4g	4d	4B	8g	8G
.	.	.	.	16g	16G
.	.	.	.	16f	16F
8r	8r	8r	8r	16e	16E
.	.	.	.	16d	16D
=45	=45	=45	=45	=45	=45
4cc	4e	4cc	4cc	4c	4C
8r	8r	16ee	16ee	8cc	8c
.	.	16gg	16gg	.	.
=46	=46	=46	=46	=46	=46
4g	4g	8g	8g	4b	4B
.	.	8a	8a	.	.
8r	8r	8b	8b	16g	16G
.	.	.	.	16f	16F
=47	=47	=47	=47	=47	=47
4.r	4.r	8cc	8cc	8e	8E
.	.	8dd	8dd	8r	8D
.	.	8ee	8ee	8c	8C
=48	=48	=48	=48	=48	=48
8r	8r	4ff	4ff	8c	8D
8dd	8g	.	.	8B	8G
8cc	8e	8ee	8ee	8c	8C
=49	=49	=49	=49	=49	=49
4cc	4c	4aa	4aa	4c	4F
8r	8r	16ddd	16ddd	8g	8F
.	.	16bb	16bb	.	.
=50	=50	=50	=50	=50	=50
4cc	4c	8ccc	8ccc	4g	4E
.	.	8gg	8gg	.	.
8r	8r	8ee	8ee	8cc	8c
=51	=51	=51	=51	=51	=51
4.r	4.r	4dd	4dd	8f	8F
.	.	.	.	8e	8E
.	.	16ff	16ff	8d	8D
.	.	16aa	16aa	.	.
=52	=52	=52	=52	=52	=52
4dd	4g	4b	4b	8g	8G
.	.	.	.	8f	8F
8ee	8cc	8cc	8cc	8e	8E
=53	=53	=53	=53	=53	=53
4cc	4cc	8a	8a	4f	4F
.	.	16g	16g	.	.
.	.	16f	16f	.	.
8r	8r	16e	16e	8r	8r
.	.	16d	16d	.	.
=54	=54	=54	=54	=54	=54
4cc	4cc	8cc	8cc	4e	4E
.	.	16b	16b	.	.
.	.	16a	16a	.	.
8r	8r	16g	16g	8r	8r
.	.	16f	16f	.	.
=55	=55	=55	=55	=55	=55
8ee	8cc	8e	8e	8e	8E
8r	8r	8f	8f	8f	8F
8dd	8g	8g	8g	8g	8G
=56	=56	=56	=56	=56	=56
4cc	4e	4c	4c	8c	8C
.	.	.	.	8G	8GG
8r	8r	8r	8r	8C	8CC
=57	=57	=57	=57	=57	=57
4.r	4.r	4gg	4.r	4.r	4.r
.	.	8aa-	.	.	.
=58	=58	=58	=58	=58	=58
4.r	4.r	4b	4g	4.r	4.r
.	.	8cc	8a-	.	.
=59	=59	=59	=59	=59	=59
4.r	4.r	8.dd	4B	4.r	4.r
.	.	32ee-	.	.	.
.	.	32ff	.	.	.
.	.	8ee-	8c	.	.
=60	=60	=60	=60	=60	=60
4.r	4.r	8.ff	8.d	4.r	4.r
.	.	32gg	32e-	.	.
.	.	32aa-	32f	.	.
.	.	8gg	8e-	.	.
=61	=61	=61	=61	=61	=61
4.r	4.r	8.aa-	8.f	4.r	4.r
.	.	32bb-	32g	.	.
.	.	32ccc	32a-	.	.
.	.	8bb-	8g	.	.
=62	=62	=62	=62	=62	=62
4.r	4.r	4.aa	8ee-	8cc	8F
.	.	.	8ee-	8cc	8F
.	.	.	8ee-	8cc	8F
=63	=63	=63	=63	=63	=63
4.r	4.r	4.aa-	8dd	8f	8B-
.	.	.	8dd	8f	8B-
.	.	.	8dd	8f	8B-
=64	=64	=64	=64	=64	=64
4.r	4.r	8gg	4ee-	4B-	4E-
.	.	16ff	.	.	.
.	.	16ee-	.	.	.
.	.	16dd	8r	8r	8r
.	.	16cc	.	.	.
=65	=65	=65	=65	=65	=65
4.r	4.r	8b-	8b-	8g	8G
.	.	8ee-	8g	8b-	8B-
.	.	8dd	8f	8B-	8BB-
=66	=66	=66	=66	=66	=66
4.r	4.r	4ee-	4e-	8e-	8E-
.	.	.	.	8e-	8E-
.	.	8r	8r	8f	8F
=67	=67	=67	=67	=67	=67
4.r	4.r	4bb-	4.r	4g	4G
.	.	8ddd-	.	8r	8r
=68	=68	=68	=68	=68	=68
4.r	4.r	4gg	4b-	4.r	4.r
.	.	8bb-	8dd-	.	.
=69	=69	=69	=69	=69	=69
4.r	4.r	4ee	4g	4.r	4.r
.	.	8gg	8b-	.	.
=70	=70	=70	=70	=70	=70
4.r	4.r	4dd-	4e	4g	4.B-
.	.	8e	8g	8d-	.
=71	=71	=71	=71	=71	=71
4.r	4.r	8f	8f	8c	8A-
.	.	4r	4r	4r	4r
=72	=72	=72	=72	=72	=72
4.r	4.r	8d-	8d-	8F	8B-
.	.	4r	4r	4r	4r
=73	=73	=73	=73	=73	=73
4.r	4.r	8c	8c	8a-	8A-
.	.	8f	8f	8b-	8B-
.	.	8e	8e	8cc	8c
=74	=74	=74	=74	=74	=74
4.r	4.r	4f	4f	4f	4F
.	.	16aa-	8f	8r	8r
.	.	16ff	.	.	.
=75	=75	=75	=75	=75	=75
4.r	4.r	4dd	4b-	4.r	4.r
.	.	16gg	8e-	.	.
.	.	16ee-	.	.	.
=76	=76	=76	=76	=76	=76
4.r	4.r	4cc	4a-	4.r	4.r
.	.	16ff	8d	.	.
.	.	16dd	.	.	.
=77	=77	=77	=77	=77	=77
4.r	4.r	4b	4g	4.r	4.r
.	.	16ee-	8a-	.	.
.	.	16cc	.	.	.
=78	=78	=78	=78	=78	=78
4.r	4.r	8dd	8g	8g	8G
.	.	4r	4r	16g	16G
.	.	.	.	16f	16F
.	.	.	.	16e-	16E-
.	.	.	.	16d	16D
=79	=79	=79	=79	=79	=79
4.r	4.r	4gg	4.r	4c	4C
.	.	8aa-	.	8r	8r
=80	=80	=80	=80	=80	=80
4.r	4.r	4b	4g	4.r	4.r
.	.	8cc	8a-	.	.
=81	=81	=81	=81	=81	=81
4.r	4.r	8.dd	4B	4.r	4.r
.	.	32ee-	.	.	.
.	.	32ff	.	.	.
.	.	8ee-	8c	.	.
=82	=82	=82	=82	=82	=82
4.r	4.r	8.ff	8.d	4.r	4.r
.	.	32gg	32e-	.	.
.	.	32aa-	32f	.	.
.	.	8gg	8e-	.	.
=83	=83	=83	=83	=83	=83
4.r	4.r	4.ff#	8cc	8a	8D
.	.	.	8cc	8a	8D
.	.	.	8cc	8a	8D
=84	=84	=84	=84	=84	=84
4.r	4.r	4.ff	8b	8d	8G
.	.	.	8b	8d	8G
.	.	.	8b	8d	8G
=85	=85	=85	=85	=85	=85
4.r	4.r	8ee	8cc	8c	8C
.	.	8b	8b	8f	8D
.	.	8cc	8cc	8g	8E
=86	=86	=86	=86	=86	=86
4.r	4.r	8aa	8cc	8f	8F
.	.	8r	8r	8r	8r
.	.	8bb	8dd	8g	8F
=87	=87	=87	=87	=87	=87
4.r	4.r	8ccc	8ee	8g	8E
.	.	8ee	8cc	8g	8G
.	.	8dd	8b	8G	8GG
=88	=88	=88	=88	=88	=88
4.r	4.r	4cc	4cc	4c	4C
.	.	16c	16c	16c	16C
.	.	16d	16d	16d	16D
=89	=89	=89	=89	=89	=89
4.r	4.r	8e	8e	8e	8E
.	.	8d	8d	8d	8D
.	.	8c	8c	8c	8C
=90	=90	=90	=90	=90	=90
4.r	4.r	8g	8g	8g	8G
.	.	8r	8r	8r	8r
.	.	16g	16g	16g	16G
.	.	16a	16a	16a	16A
=91	=91	=91	=91	=91	=91
4.r	4.r	8b	8b	8b	8B
.	.	8a	8a	8a	8A
.	.	8g	8g	8g	8G
=92	=92	=92	=92	=92	=92
4cc	4e	4cc	4cc	8cc	4c
.	.	.	.	8r	.
8r	8r	16ee	16ee	8cc	8c
.	.	16gg	16gg	.	.
=93	=93	=93	=93	=93	=93
4g	4g	8g	8g	4b	4B
.	.	8a	8a	.	.
8r	8r	8b	8b	16g	16G
.	.	.	.	16f	16F
=94	=94	=94	=94	=94	=94
4.r	4.r	8cc	8cc	8e	8E
.	.	8dd	8dd	8d	8D
.	.	8ee	8ee	8c	8C
=95	=95	=95	=95	=95	=95
8r	8r	4ff	4ff	8c	8D
8dd	8g	.	.	8B	8G
8cc	8e	8ee	8ee	8c	8C
=96	=96	=96	=96	=96	=96
4.r	4.r	4aa	4aa	4c	4F
.	.	16ff	16ff	8r	8r
.	.	16dd	16dd	.	.
=97	=97	=97	=97	=97	=97
4.r	4.r	8gg	8gg	4c	4E
.	.	8b	8b	.	.
.	.	8cc	8cc	8r	8r
=98	=98	=98	=98	=98	=98
8dd	8g	8dd	8dd	8r	8r
8ff	8dd	8f	8f	8b	8B
8ee	8cc	8e	8e	8cc	8c
=99	=99	=99	=99	=99	=99
4dd	4g	4d	4d	8g	8G
.	.	.	.	16g	16G
.	.	.	.	16f	16F
8r	8r	8r	8r	16e	16E
.	.	.	.	16d	16D
=100	=100	=100	=100	=100	=100
4cc	4e	4cc	4cc	4c	4C
8r	8r	16ee	16ee	8cc	8c
.	.	16gg	16gg	.	.
=101	=101	=101	=101	=101	=101
4g	4g	8g	8g	4b	4B
.	.	8a	8a	.	.
8r	8r	8b	8b	16g	16G
.	.	.	.	16f	16F
=102	=102	=102	=102	=102	=102
4.r	4.r	8cc	8cc	8e	8E
.	.	8dd	8dd	8d	8D
.	.	8ee	8ee	8c	8C
=103	=103	=103	=103	=103	=103
8r	8r	4ff	4ff	8c	8D
8dd	8g	.	.	8B	8G
8cc	8e	8ee	8ee	8c	8C
=104	=104	=104	=104	=104	=104
4.r	4.r	4ccc	4ccc	8r	8r
.	.	.	.	8a	8A
.	.	16aa	16aa	8cc	8c
.	.	16gg	16gg	.	.
=105	=105	=105	=105	=105	=105
4.r	4.r	8ff#	8ff#	4dd	4d
.	.	8aa	8aa	.	.
.	.	8cc	8cc	8f#	8F#
=106	=106	=106	=106	=106	=106
8r	8r	8b	8b	8g	8G
8dd	8dd	8g	8B	8G	8d
8dd	8dd	8f#	8A	8F#	8D
=107	=107	=107	=107	=107	=107
4dd	4g	4g	4G	8G	8GG
.	.	.	.	8g	8G
8r	8r	8r	8r	8f	8F
=108	=108	=108	=108	=108	=108
4.r	4.r	8G	8G	4e	4E
.	.	8g	8g	.	.
.	.	8f	8f	8d	8D
=109	=109	=109	=109	=109	=109
4.r	4.r	8e	8e	8c	8C
.	.	4r	4r	8cc	8c
.	.	.	.	8b-	8B-
=110	=110	=110	=110	=110	=110
4.r	4.r	8c	8c	4a	4A
.	.	8cc	8cc	.	.
.	.	8b-	8b-	8g	8G
=111	=111	=111	=111	=111	=111
4.r	4.r	8a	8a	8f	8F
.	.	8aa	8aa	8f	8f
.	.	8gg	8gg	8e	8e
=112	=112	=112	=112	=112	=112
8dd	8dd	4ff	4ff	8d	8d
8ff	8dd	.	.	8B	8B
8ee	8cc	16ee	16ee	8c	8c
.	.	16cc	16cc	.	.
=113	=113	=113	=113	=113	=113
8dd	8g	8dd	8b	8g	8G
4r	4r	8r	8r	8g	8G
.	.	16ee	16cc	8g	8G
.	.	16cc	16a	.	.
=114	=114	=114	=114	=114	=114
8dd	8g	8dd	8b	8g	8G
4r	4r	8r	8r	8g	8G
.	.	8ff#	8a	8g	8G
=115	=115	=115	=115	=115	=115
8dd	8g	8gg	8b	8g	8G
4r	4r	8r	8r	8g	8G
.	.	16cc	16a	8g	8G
.	.	16a	16f#	.	.
=116	=116	=116	=116	=116	=116
8dd	8g	8b	8g	8g	8G
4r	4r	8r	8r	8g	8G
.	.	8f#	8A	8g	8G
=117	=117	=117	=117	=117	=117
8dd	8g	8g	8B	8g	8GG
4r	4r	4r	4r	4r	4r
=118	=118	=118	=118	=118	=118
4g	4g	4cc	4cc	4c	4C
8r	8r	16ee	16ee	8cc	8c
.	.	16gg	16gg	.	.
=119	=119	=119	=119	=119	=119
4g	4g	8g	8g	4b	4B
.	.	8a	8a	.	.
8r	8r	8b	8b	16g	16G
.	.	.	.	16f	16F
=120	=120	=120	=120	=120	=120
4.r	4.r	8cc	8cc	8e	8E
.	.	8dd	8dd	8d	8D
.	.	8ee	8ee	8c	8C
=121	=121	=121	=121	=121	=121
8r	8r	4ff	4ff	8c	8D
8dd	8g	.	.	8B	8G
8cc	8e	8ee	8ee	8c	8C
=122	=122	=122	=122	=122	=122
4.r	4.r	4aa	4aa	4c	4F
.	.	16ddd	16ddd	8g	8F
.	.	16bb	16bb	.	.
=123	=123	=123	=123	=123	=123
4.r	4.r	8ccc	8ccc	4g	4E
.	.	8gg	8gg	.	.
.	.	8ee	8ee	8cc	8c
=124	=124	=124	=124	=124	=124
4.r	4.r	4dd	4dd	8f	8F
.	.	.	.	8e	8E
.	.	16ff	16ff	8d	8D
.	.	16aa	16aa	.	.
=125	=125	=125	=125	=125	=125
4dd	4g	4b	4b	8g	8G
.	.	.	.	8f	8F
8ee	8cc	8cc	8cc	8e	8E
=126	=126	=126	=126	=126	=126
4r	4r	8e	8e	8e	8E
.	.	8f	8f	8f	8F
8dd	8g	8g	8g	8g	8G
=127	=127	=127	=127	=127	=127
4cc	4e	8c	8c	8c	8C
.	.	16a	16a	16a	16A
.	.	16g	16g	16g	16G
8r	8r	16f	16f	16f	16F
.	.	16e	16e	16e	16E
=128	=128	=128	=128	=128	=128
4.r	4.r	8d	8d	8d	8D
.	.	8b-	8b-	8b-	8B-
.	.	8g	8g	8g	8G
=129	=129	=129	=129	=129	=129
4.r	4.r	8e	8e	8e	8E
.	.	16cc	16cc	16cc	16c
.	.	16b-	16b-	16b-	16B-
.	.	16a	16a	16a	16A
.	.	16g	16g	16g	16G
=130	=130	=130	=130	=130	=130
4.r	4.r	8f	4f	8f	8F
.	.	8ff	.	8g	8G
.	.	8ff	8e-	8a	8A
=131	=131	=131	=131	=131	=131
4.r	4.r	4ff	4d	8b-	8B-
.	.	.	.	8cc	8c
.	.	8r	8r	8dd	8d
=132	=132	=132	=132	=132	=132
8gg	8cc	8gg	4r	8e	8C
8gg	8cc	8gg	.	8f	8D
8gg	8cc	16gg	16b-	8g	8E
.	.	16bb-	16g	.	.
=133	=133	=133	=133	=133	=133
8aa	8ff	8aa	8f	4c	8F
4r	4r	4r	4r	.	8G
.	.	.	.	8r	8A
=134	=134	=134	=134	=134	=134
4.r	4.r	8ff	4f	8A	8F
.	.	8ff	.	8B-	8G
.	.	8ff	8e-	8c	8A
=135	=135	=135	=135	=135	=135
4.r	4.r	4ff	4d	8d	8B-
.	.	.	.	8e	8c
.	.	8r	8r	8f	8d
=136	=136	=136	=136	=136	=136
8gg	8cc	8gg	4r	8e	8C
8gg	8cc	8gg	.	8f	8D
8gg	8cc	16gg	16b-	8g	8E
.	.	16bb-	16g	.	.
=137	=137	=137	=137	=137	=137
8aa	8ff	8aa	8f	4c	8F
4r	4r	4r	4r	.	8G
.	.	.	.	8r	8A
=138	=138	=138	=138	=138	=138
4.r	4.r	4.ddd	4.bb-	8f	8BB-
.	.	.	.	8f	8D
.	.	.	.	8f	8E
=139	=139	=139	=139	=139	=139
4.r	4.r	8ccc	8aa	8f	8F
.	.	8ee	8b-	8c	8G
.	.	8ff	8a	8c	8A
=140	=140	=140	=140	=140	=140
4.r	4.r	16bb-	4r	8d	8B-
.	.	16gg	.	.	.
.	.	16aa	.	8c	8c
.	.	16ff	.	.	.
.	.	16gg	16b-	8B-	8C
.	.	16ee	16g	.	.
=141	=141	=141	=141	=141	=141
4.r	4.r	4ff	4f	8A	8F
.	.	.	.	8c	8C
.	.	8r	8r	8f	8FF
=142	=142	=142	=142	=142	=142
[4.cc	[4.c	4ccc	[4.c	8e	8C
.	.	.	.	8f	8D
.	.	8bb-	.	8g	8E
=143	=143	=143	=143	=143	=143
4.cc_	4.c_	8aa-	4.c]	4c	8F
.	.	8ee	.	.	8G
.	.	8ff	.	8r	8A-
=144	=144	=144	=144	=144	=144
4.cc_	4.c_	8cc	[4.cc	8e	4c
.	.	8dd	.	8f	.
.	.	8ee	.	8g	8B-
=145	=145	=145	=145	=145	=145
4.cc_	4.c_	8ff	4.cc]	4c	8A-
.	.	8gg	.	.	8E
.	.	8aa-	.	8r	8F
=146	=146	=146	=146	=146	=146
4.cc_	4.c_	4ccc	[4.c	8e	8C
.	.	.	.	8f	8D
.	.	8bb-	.	8g	8E
=147	=147	=147	=147	=147	=147
4.cc_	4.c_	8aa-	4.c]	4c	8F
.	.	8ee	.	.	8G
.	.	8ff	.	8r	8A-
=148	=148	=148	=148	=148	=148
4.cc_	4.c_	8cc	[4.cc	8e	4c
.	.	8dd	.	8f	.
.	.	8ee	.	8g	8B-
=149	=149	=149	=149	=149	=149
4.cc]	4.c]	8ff	4.cc]	4c	8A-
.	.	8gg	.	.	8E
.	.	8aa-	.	8r	8F
=150	=150	=150	=150	=150	=150
4.r	4.r	8b	4f	4a-	4D-
.	.	8aa-	.	.	.
.	.	8ff	8r	8r	8r
=151	=151	=151	=151	=151	=151
4.r	4.r	8b	4f	8a-	4D-
.	.	8aa-	.	8f	.
.	.	8ff	8b	8f	8D-
=152	=152	=152	=152	=152	=152
4.r	4.r	8ee	8cc	4g	4C
.	.	16gg	16gg	.	.
.	.	16ff	16ff	.	.
.	.	16ee	16ee	8r	8r
.	.	16dd	16dd	.	.
=153	=153	=153	=153	=153	=153
4.r	4.r	8cc	8cc	8c	8C
.	.	4r	4r	16cc	16c
.	.	.	.	16b-	16B-
.	.	.	.	16a	16A
.	.	.	.	16g	16G
=154	=154	=154	=154	=154	=154
4.r	4.r	8ff	4f	8f	8F
.	.	8ff	.	8g	8G
.	.	8ff	8e-	8a	8A
=155	=155	=155	=155	=155	=155
4.r	4.r	4ff	4d	8b-	8B-
.	.	.	.	8cc	8c
.	.	8r	8r	8dd	8d
=156	=156	=156	=156	=156	=156
8gg	8cc	8gg	4r	8e	8C
8gg	8cc	8gg	.	8d	8D
8gg	8cc	16gg	16b-	8c	8E
.	.	16bb-	16g	.	.
=157	=157	=157	=157	=157	=157
8aa	8ff	8aa	8f	4c	8F
4r	4r	4r	4r	.	8G
.	.	.	.	8r	8A
=158	=158	=158	=158	=158	=158
4.r	4.r	8ff	4f	8A	8F
.	.	8ff	.	8B-	8G
.	.	8ff	8e-	8c	8A
=159	=159	=159	=159	=159	=159
4.r	4.r	4ff	4d	8d	8B-
.	.	.	.	8e	8c
.	.	8r	8r	8f	8d
=160	=160	=160	=160	=160	=160
8gg	8cc	8gg	4r	8e	8C
8gg	8cc	8gg	.	8d	8D
8gg	8cc	16gg	16b-	8c	8E
.	.	16bb-	16g	.	.
=161	=161	=161	=161	=161	=161
8aa	8ff	8aa	8f	8c	8F
4r	4r	4r	4r	8B-	8G
.	.	.	.	8A	8A
=162	=162	=162	=162	=162	=162
4.r	4.r	4.ddd	4.bb-	4.f	8BB-
.	.	.	.	.	8D
.	.	.	.	.	8E
=163	=163	=163	=163	=163	=163
4.r	4.r	8ccc	8aa	8f	8F
.	.	8ee	8b-	8c	8G
.	.	8ff	8a	8c	8A
=164	=164	=164	=164	=164	=164
4.r	4.r	16bb-	4r	8d	8B-
.	.	16gg	.	.	.
.	.	16aa	.	8c	8c
.	.	16ff	.	.	.
.	.	16gg	16b-	8B-	8C
.	.	16ee	16g	.	.
=165	=165	=165	=165	=165	=165
4.r	4.r	4ff	4f	8A	8F
.	.	.	.	8c	8A
.	.	8r	8r	8A	8F
=166	=166	=166	=166	=166	=166
4.r	4.r	4.ddd	4.bb-	4.f	8BB-
.	.	.	.	.	8D
.	.	.	.	.	8E
=167	=167	=167	=167	=167	=167
4.r	4.r	8ccc	8aa	8f	8F
.	.	8ee	8b-	8c	8G
.	.	8ff	8a	8c	8A
=168	=168	=168	=168	=168	=168
4.r	4.r	16dd	16b-	16B-	4r
.	.	16b-	16g	16d	.
.	.	16cc	16a	8c	.
.	.	16a	16f	.	.
.	.	16b-	16g	8c	8c
.	.	16g	16e	.	.
=169	=169	=169	=169	=169	=169
4.r	4.r	8f	8f	8A	8F
.	.	8r	8r	8r	8r
.	.	16f	16f	16f	16F
.	.	16g	16g	16g	16G
=170	=170	=170	=170	=170	=170
4.r	4.r	8a	8a	8a	8A
.	.	8r	8r	8r	8r
.	.	16f	16f	16f	16F
.	.	16e	16e	16e	16E
=171	=171	=171	=171	=171	=171
4.r	4.r	8d	8d	8d	8D
.	.	8r	8r	8r	8r
.	.	16d	16d	16d	16D
.	.	16e	16e	16e	16E
=172	=172	=172	=172	=172	=172
4.r	4.r	8f	8f	8f	8F
.	.	8d	8d	8d	8D
.	.	8B	8B	8B	8BB
=173	=173	=173	=173	=173	=173
4.r	4.r	8G	8G	8G	8GG
.	.	8dd	8dd	8A	8AA
.	.	8f	8f	8B	8BB
=174	=174	=174	=174	=174	=174
4cc	4e	4cc	4cc	4c	4C
8r	8r	16ee	16ee	8cc	8c
.	.	16gg	16gg	.	.
=175	=175	=175	=175	=175	=175
4g	4g	8g	8g	4b	4B
.	.	8a	8a	.	.
8r	8r	8b	8b	16g	16G
.	.	.	.	16f	16F
=176	=176	=176	=176	=176	=176
4.r	4.r	8cc	8cc	8e	8E
.	.	8dd	8dd	8d	8D
.	.	8ee	8ee	8c	8C
=177	=177	=177	=177	=177	=177
8r	8r	4ff	4ff	8c	8D
8dd	8g	.	.	8B	8G
8cc	8e	8ee	8ee	8c	8C
=178	=178	=178	=178	=178	=178
4.r	4.r	4aa	4aa	4c	4F
.	.	16ff	16ff	8r	8r
.	.	16dd	16dd	.	.
=179	=179	=179	=179	=179	=179
4.r	4.r	8gg	8gg	4c	4E
.	.	8b	8b	.	.
.	.	8cc	8cc	8r	8r
=180	=180	=180	=180	=180	=180
8r	8r	8dd	8dd	8r	8r
8ff	8dd	8f	8d	8b	8B
8ee	8cc	8e	8c	8cc	8c
=181	=181	=181	=181	=181	=181
4dd	4g	4d	4B	8g	8G
.	.	.	.	16g	16G
.	.	.	.	16f	16F
8r	8r	8r	8r	16e	16E
.	.	.	.	16d	16D
=182	=182	=182	=182	=182	=182
4cc	4e	4cc	4cc	4c	4C
8r	8r	16ee	16ee	8cc	8c
.	.	16gg	16gg	.	.
=183	=183	=183	=183	=183	=183
4g	4g	8g	8g	4b	4B
.	.	8a	8a	.	.
8r	8r	8b	8b	16g	16G
.	.	.	.	16f	16F
=184	=184	=184	=184	=184	=184
4.r	4.r	8cc	8cc	8e	8E
.	.	8dd	8dd	8d	8D
.	.	8ee	8ee	8c	8C
=185	=185	=185	=185	=185	=185
8r	8r	4ff	4ff	8c	8D
8dd	8g	.	.	8B	8G
8cc	8e	8ee	8ee	8c	8C
=186	=186	=186	=186	=186	=186
4.r	4.r	4ccc	4ccc	4cc	4c
.	.	16ee	16ee	8cc	8c
.	.	16ff#	16ff#	.	.
=187	=187	=187	=187	=187	=187
4.r	4.r	8gg	8gg	8b	8B
.	.	8aa	8aa	8a	8A
.	.	8bb	8bb	8g	8G
=188	=188	=188	=188	=188	=188
4.r	4.r	4aa	4aa	4f#	4F#
.	.	16a	16a	8d	8D
.	.	16cc	16cc	.	.
=189	=189	=189	=189	=189	=189
4.r	4.r	8b	8b	8g	8G
.	.	8cc	8cc	8a	8A
.	.	8dd	8dd	8b	8B
=190	=190	=190	=190	=190	=190
4g	4g	8ee	8ee	4cc	4c
.	.	16dd	16dd	.	.
.	.	16cc	16cc	.	.
8r	8r	16b	16b	8r	8r
.	.	16a	16a	.	.
=191	=191	=191	=191	=191	=191
4g	4g	8dd	8dd	4b	4B
.	.	16cc	16cc	.	.
.	.	16b	16b	.	.
8r	8r	16a	16a	8r	8r
.	.	16g	16g	.	.
=192	=192	=192	=192	=192	=192
8r	8r	8B	8B	8B	8BB
8cc	8cc	8c	8c	8c	8C
8dd	8dd	8d	8d	8d	8D
=193	=193	=193	=193	=193	=193
4dd	4g	4G	4G	8G	8GG
.	.	.	.	8g	8G
8r	8r	8r	8r	8f	8F
=194	=194	=194	=194	=194	=194
4cc	4e	4cc	8g	8e	8E
.	.	.	8g	8e	8E
8r	8r	16gg	8g	8e	8E
.	.	16ee	.	.	.
=195	=195	=195	=195	=195	=195
4.r	4.r	8cc#	8a	8f	8F
.	.	8dd	8a	8f	8F
.	.	8r	8a	8f	8F
=196	=196	=196	=196	=196	=196
4dd	4g	4dd	8b	8g	8G
.	.	.	8b	8g	8G
8r	8r	16aa	8b	8g	8G
.	.	16ff	.	.	.
=197	=197	=197	=197	=197	=197
4.r	4.r	8dd#	8b	8cc	8c
.	.	8ee	8cc	8cc	8c
.	.	8r	8r	8cc	8c
=198	=198	=198	=198	=198	=198
4cc	4c	4aa	4cc	4f	4F
8r	8r	16ccc	8r	8r	8r
.	.	16aa	.	.	.
=199	=199	=199	=199	=199	=199
4cc	4c	4gg	4cc	4e	4E
8r	8r	16cc	8r	8r	8r
.	.	16dd	.	.	.
=200	=200	=200	=200	=200	=200
4.r	4.r	8ee	4.r	4.r	4.r
.	.	8dd	.	.	.
.	.	8cc	.	.	.
=201	=201	=201	=201	=201	=201
[4.gg	[4.g	[4.gg	4r	4.r	4.r
.	.	.	16g	.	.
.	.	.	16a	.	.
=202	=202	=202	=202	=202	=202
4.gg_	4.g_	4.gg_	8b	4.r	4.r
.	.	.	8a	.	.
.	.	.	8g	.	.
=203	=203	=203	=203	=203	=203
4.gg_	4.g_	4.gg_	8cc	4r	4.r
.	.	.	8ee	.	.
.	.	.	16ee	16c	.
.	.	.	16ff	16d	.
=204	=204	=204	=204	=204	=204
4.gg_	4.g_	4.gg_	8gg	8e	4.r
.	.	.	8b	8d	.
.	.	.	8cc	8c	.
=205	=205	=205	=205	=205	=205
4.gg_	4.g_	4.gg_	8b	8g	4r
.	.	.	8dd	8b	.
.	.	.	8g	16b	16G
.	.	.	.	16cc	16A
=206	=206	=206	=206	=206	=206
4.gg_	4.g_	4.gg_	[4.g	8dd	8B
.	.	.	.	8cc	8A
.	.	.	.	8b	8G
=207	=207	=207	=207	=207	=207
4gg]	4g]	4gg]	4g]	8ee	8c
.	.	.	.	8cc	8e
8cc	8cc	16c	16c	16c	16C
.	.	16d	16d	16d	16D
=208	=208	=208	=208	=208	=208
8ee	8ee	8e	8e	8e	8E
8dd	8dd	8d	8d	8d	8D
8cc	8cc	8c	8c	8c	8C
=209	=209	=209	=209	=209	=209
4g	4g	4G	4G	8G	8GG
.	.	.	.	16g	16G
.	.	.	.	16f	16F
8r	8r	8r	8r	16e	16E
.	.	.	.	16d	16D
=210	=210	=210	=210	=210	=210
4cc	4e	4cc	4cc	4c	4C
8r	8r	16ee	16ee	8cc	8c
.	.	16gg	16gg	.	.
=211	=211	=211	=211	=211	=211
4dd	4g	8g	8g	4b	4B
.	.	8a	8a	.	.
8r	8r	8b	8b	16g	16G
.	.	.	.	16f	16F
=212	=212	=212	=212	=212	=212
4.r	4.r	8cc	8cc	8e	8E
.	.	8dd	8dd	8d	8D
.	.	8ee	8ee	8c	8C
=213	=213	=213	=213	=213	=213
8r	8r	4ff	4ff	8c	8D
8dd	8g	.	.	8B	8G
8cc	8e	8ee	8ee	8c	8C
=214	=214	=214	=214	=214	=214
4.r	4.r	4aa	4aa	4c	4F
.	.	16ff	16ff	8r	8r
.	.	16dd	16dd	.	.
=215	=215	=215	=215	=215	=215
4.r	4.r	8gg	8gg	4c	4E
.	.	8b	8b	.	.
.	.	8cc	8cc	8r	8r
=216	=216	=216	=216	=216	=216
8dd	8g	8dd	8dd	8r	8r
8ff	8dd	8f	8d	8b	8B
8ee	8cc	8e	8c	8cc	8c
=217	=217	=217	=217	=217	=217
4dd	4g	4d	4B	8g	8G
.	.	.	.	16g	16G
.	.	.	.	16f	16F
8r	8r	8r	8r	16e	16E
.	.	.	.	16d	16D
=218	=218	=218	=218	=218	=218
4cc	4e	4cc	4cc	4c	4C
8r	8r	16ee	16ee	8cc	8c
.	.	16gg	16gg	.	.
=219	=219	=219	=219	=219	=219
4g	4g	8g	8g	4b	4B
.	.	8a	8a	.	.
8r	8r	8b	8b	16g	16G
.	.	.	.	16f	16F
=220	=220	=220	=220	=220	=220
4.r	4.r	8cc	8cc	8e	8E
.	.	8dd	8dd	8d	8D
.	.	8ee	8ee	8c	8C
=221	=221	=221	=221	=221	=221
8r	8r	4ff	4ff	8c	8D
8dd	8g	.	.	8B	8G
8cc	8e	8ee	8ee	8c	8C
=222	=222	=222	=222	=222	=222
4cc	4c	4aa	4aa	4c	4F
8r	8r	16ddd	16ddd	8g	8F
.	.	16bb	16bb	.	.
=223	=223	=223	=223	=223	=223
4cc	4c	8ccc	8ccc	4g	4E
.	.	8gg	8gg	.	.
8r	8r	8ee	8ee	8cc	8c
=224	=224	=224	=224	=224	=224
4.r	4.r	4dd	4dd	8f	8F
.	.	.	.	8e	8E
.	.	16ff	16ff	8d	8D
.	.	16aa	16aa	.	.
=225	=225	=225	=225	=225	=225
4dd	4g	4b	4b	8g	8G
.	.	.	.	8f	8F
8ee	8cc	8cc	8cc	8e	8E
=226	=226	=226	=226	=226	=226
8cc	8cc	8a	8a	4f	4F
4r	4r	16g	16g	.	.
.	.	16f	16f	.	.
.	.	16e	16e	8r	8r
.	.	16d	16d	.	.
=227	=227	=227	=227	=227	=227
8cc	8cc	8cc	8cc	4e	4E
4r	4r	16b	16b	.	.
.	.	16a	16a	.	.
.	.	16g	16g	8r	8r
.	.	16f	16f	.	.
=228	=228	=228	=228	=228	=228
8cc	8e	8e	8e	8e	8E
8r	8r	8f	8f	8f	8F
8dd	8g	8g	8g	8g	8G
=229	=229	=229	=229	=229	=229
8cc	8e	4c	4c	8c	8C
8ee	8cc	.	.	8cc	8c
8ee	8cc	8r	8r	8g	8G
=230	=230	=230	=230	=230	=230
8ee	8cc	4ee 4g 4cc 4c	4cc 4ee 4g 4c	8e	8E
8cc	8e	.	.	16g	16G
.	.	.	.	16f	16F
8cc	8e	8r	8r	16e	16E
.	.	.	.	16d	16D
=231	=231	=231	=231	=231	=231
4cc	4e	4ee 4g 4cc 4c	4ee 4cc 4g 4c	4c	4C
8r	8r	8r	8r	8r	8r
==	==	==	==	==	==
*-	*-	*-	*-	*-	*-
!!!RWG1: This file contains only pitch and duration data.
!!!RWG2: Transposing instruments are not transposed.
!!!RWG3: Spines may have incompatible meters.
!!!RWG4: Durations of rests and tied notes may be interpreted.
!!!RWG: Key is interpreted using the Humdrum key tool.
!!!AFT: stage1 
!!!END: 2000/12/13
!!format changes:
!!content changes:
!!public access: complete
!!!KEY: 4197995450
!!!EMD: Converted from MuseData to Humdrum Dec 16, 2000, by Andreas Kornstaedt using muse2kern.
